hosted/assets/icon/widgets/dark-mode/kpi-advanced.svg

<svg width="50" height="50" viewBox="0 0 50 50" fill="none" xmlns="http://www.w3.org/2000/svg">
<path d="M11.5001 40.5C9.53076 39.7123 4.1681 41.7685 3.04926 42.4683C3.01715 42.4884 3.00302 42.5237 3.00772 42.5613L3.49131 46.4301C3.49655 46.472 3.52759 46.5061 3.56884 46.5153L7.98803 47.4973C7.99602 47.4991 8.00418 47.4999 8.01236 47.4997L45.9401 46.5016C45.977 46.5006 46.0104 46.4794 46.0269 46.4463L46.9895 44.5211C46.9964 44.5072 47 44.4919 47 44.4764V38.538C47 38.5135 46.9909 38.4897 46.9745 38.4714C42.9746 33.9979 36.9916 33.5064 33.0001 36.5C29.0001 39.5 28.6401 33.5 25.0001 33.5C23.0001 33.5 22.5001 38.5 21.0001 38C19.5001 37.5 19.0001 37 17.5001 39.5C16.0001 42 14.0001 41.5 11.5001 40.5Z" fill="#78768B"/>
<path d="M17.3441 20.2C17.5361 20.2 17.6961 20.264 17.8241 20.392C17.9521 20.52 18.0161 20.68 18.0161 20.872C18.0161 21.056 17.9521 21.212 17.8241 21.34C17.6961 21.46 17.5361 21.52 17.3441 21.52H13.2641C13.0561 21.52 12.8921 21.456 12.7721 21.328C12.6521 21.2 12.5921 21.036 12.5921 20.836C12.5921 20.636 12.6641 20.46 12.8081 20.308L15.4241 17.512C15.7121 17.2 15.9441 16.884 16.1201 16.564C16.2961 16.236 16.3841 15.932 16.3841 15.652C16.3841 15.404 16.3241 15.18 16.2041 14.98C16.0841 14.78 15.9281 14.62 15.7361 14.5C15.5441 14.38 15.3361 14.32 15.1121 14.32C14.8801 14.32 14.6441 14.4 14.4041 14.56C14.1641 14.712 13.9521 14.916 13.7681 15.172C13.6721 15.3 13.5761 15.38 13.4801 15.412C13.3841 15.444 13.2961 15.46 13.2161 15.46C13.0401 15.46 12.8761 15.396 12.7241 15.268C12.5801 15.132 12.5081 14.976 12.5081 14.8C12.5081 14.664 12.5521 14.532 12.6401 14.404C12.7361 14.276 12.8521 14.144 12.9881 14.008C13.2921 13.704 13.6441 13.46 14.0441 13.276C14.4441 13.092 14.8281 13 15.1961 13C15.7401 13 16.2081 13.112 16.6001 13.336C16.9921 13.56 17.2961 13.868 17.5121 14.26C17.7281 14.652 17.8361 15.096 17.8361 15.592C17.8361 15.928 17.7721 16.272 17.6441 16.624C17.5241 16.968 17.3561 17.304 17.1401 17.632C16.9241 17.96 16.6761 18.276 16.3961 18.58L14.7761 20.308L14.6441 20.2H17.3441Z" fill="white"/>
<path d="M22.8657 21.52C22.6657 21.52 22.4977 21.452 22.3617 21.316C22.2257 21.172 22.1577 20.996 22.1577 20.788V15.148L22.4097 15.208L20.0937 18.076L20.0337 17.92H24.1017C24.2937 17.92 24.4537 17.984 24.5817 18.112C24.7097 18.24 24.7737 18.4 24.7737 18.592C24.7737 18.776 24.7097 18.932 24.5817 19.06C24.4537 19.18 24.2937 19.24 24.1017 19.24H19.0377C18.8697 19.24 18.7057 19.172 18.5457 19.036C18.3937 18.9 18.3177 18.732 18.3177 18.532C18.3177 18.356 18.3777 18.196 18.4977 18.052L22.2897 13.408C22.3537 13.32 22.4377 13.252 22.5417 13.204C22.6457 13.148 22.7617 13.12 22.8897 13.12C23.0977 13.12 23.2657 13.192 23.3937 13.336C23.5297 13.472 23.5977 13.644 23.5977 13.852V20.788C23.5977 20.996 23.5257 21.172 23.3817 21.316C23.2457 21.452 23.0737 21.52 22.8657 21.52Z" fill="white"/>
<path d="M10.836 20.2C11.028 20.2 11.188 20.264 11.316 20.392C11.444 20.52 11.508 20.68 11.508 20.872C11.508 21.056 11.444 21.212 11.316 21.34C11.188 21.46 11.028 21.52 10.836 21.52H6.756C6.548 21.52 6.384 21.456 6.264 21.328C6.144 21.2 6.084 21.036 6.084 20.836C6.084 20.636 6.156 20.46 6.3 20.308L8.916 17.512C9.204 17.2 9.436 16.884 9.612 16.564C9.788 16.236 9.876 15.932 9.876 15.652C9.876 15.404 9.816 15.18 9.696 14.98C9.576 14.78 9.42 14.62 9.228 14.5C9.036 14.38 8.828 14.32 8.604 14.32C8.372 14.32 8.136 14.4 7.896 14.56C7.656 14.712 7.444 14.916 7.26 15.172C7.164 15.3 7.068 15.38 6.972 15.412C6.876 15.444 6.788 15.46 6.708 15.46C6.532 15.46 6.368 15.396 6.216 15.268C6.072 15.132 6 14.976 6 14.8C6 14.664 6.044 14.532 6.132 14.404C6.228 14.276 6.344 14.144 6.48 14.008C6.784 13.704 7.136 13.46 7.536 13.276C7.936 13.092 8.32 13 8.688 13C9.232 13 9.7 13.112 10.092 13.336C10.484 13.56 10.788 13.868 11.004 14.26C11.22 14.652 11.328 15.096 11.328 15.592C11.328 15.928 11.264 16.272 11.136 16.624C11.016 16.968 10.848 17.304 10.632 17.632C10.416 17.96 10.168 18.276 9.888 18.58L8.268 20.308L8.136 20.2H10.836Z" fill="white"/>
<path fill-rule="evenodd" clip-rule="evenodd" d="M45 3.7H5C4.28203 3.7 3.7 4.28203 3.7 5V45C3.7 45.718 4.28203 46.3 5 46.3H45C45.718 46.3 46.3 45.718 46.3 45V5C46.3 4.28203 45.718 3.7 45 3.7ZM5 2C3.34315 2 2 3.34315 2 5V45C2 46.6569 3.34315 48 5 48H45C46.6569 48 48 46.6569 48 45V5C48 3.34315 46.6569 2 45 2H5Z" fill="white"/>
<path fill-rule="evenodd" clip-rule="evenodd" d="M21.931 38.6945C21.5777 38.8893 21.1603 38.9494 20.7312 38.8064C20.5418 38.7433 20.3934 38.6901 20.2655 38.6442C20.0907 38.5816 19.9543 38.5327 19.8037 38.4909C19.5851 38.4301 19.5008 38.4385 19.4561 38.4496C19.4143 38.4601 19.2986 38.5006 19.0858 38.7252C18.8673 38.9558 18.592 39.332 18.2289 39.9373C17.3605 41.3846 16.2534 42.078 14.928 42.1609C13.7129 42.2368 12.4213 41.784 11.1843 41.2892C10.8907 41.1718 10.3504 41.1312 9.57044 41.2252C8.82143 41.3154 7.96448 41.5146 7.11568 41.7652C6.27014 42.0149 5.45348 42.3093 4.79058 42.5805C4.10671 42.8603 3.64474 43.0918 3.47149 43.2073C3.08089 43.4677 2.55315 43.3621 2.29275 42.9715C2.03235 42.5809 2.1379 42.0532 2.5285 41.7928C2.85524 41.575 3.45578 41.2898 4.1469 41.0071C4.859 40.7157 5.72984 40.4018 6.63431 40.1348C7.5355 39.8687 8.49106 39.6429 9.36704 39.5374C10.2121 39.4355 11.1093 39.4283 11.8157 39.7108C13.0787 40.216 14.0371 40.5132 14.822 40.4642C15.4966 40.422 16.1395 40.1154 16.7711 39.0627C17.1579 38.418 17.5076 37.9192 17.8517 37.5561C18.2014 37.1869 18.5857 36.9149 19.0438 36.8004C19.4992 36.6866 19.9149 36.7574 20.2587 36.8529C20.4566 36.9079 20.6994 36.994 20.9282 37.0751C21.0098 37.104 21.0895 37.1323 21.1648 37.1583C21.198 37.1248 21.2394 37.0764 21.2885 37.0087C21.5085 36.7055 21.7247 36.2489 22.0028 35.6613C22.0165 35.6324 22.0303 35.6032 22.0443 35.5736C22.3192 34.9934 22.6517 34.3016 23.0663 33.758C23.4771 33.2194 24.1032 32.65 25 32.65C26.1741 32.65 27.067 33.1438 27.7729 33.7423C28.2502 34.1471 28.7001 34.6585 29.0834 35.0943C29.2284 35.2592 29.3639 35.4132 29.4878 35.5466C30.0007 36.0988 30.3789 36.3854 30.7533 36.466C31.0741 36.535 31.5969 36.4898 32.49 35.82C36.8729 32.5329 43.3665 33.1329 47.6353 37.9353C47.9472 38.2862 47.9156 38.8234 47.5647 39.1353C47.2138 39.4472 46.6766 39.4156 46.3647 39.0647C42.6335 34.8671 37.1271 34.4672 33.51 37.18C32.403 38.0103 31.3809 38.3401 30.3955 38.1279C29.4636 37.9272 28.7743 37.2763 28.2422 36.7035C28.0506 36.4972 27.8774 36.3 27.7119 36.1115C27.3647 35.7162 27.0515 35.3596 26.6734 35.039C26.163 34.6062 25.6459 34.35 25 34.35C24.8968 34.35 24.7104 34.4056 24.418 34.7889C24.1296 35.1672 23.8683 35.6941 23.5807 36.3014C23.5585 36.3482 23.536 36.3958 23.5133 36.444C23.2651 36.97 22.9827 37.5684 22.6646 38.007C22.4877 38.2508 22.2495 38.5188 21.931 38.6945Z" fill="white"/>
<path d="M11.9217 28.1667C12.0377 28.1667 12.1344 28.2037 12.2117 28.2778C12.289 28.3519 12.3277 28.4444 12.3277 28.5556C12.3277 28.662 12.289 28.7523 12.2117 28.8264C12.1344 28.8958 12.0377 28.9306 11.9217 28.9306H9.45674C9.33108 28.9306 9.232 28.8935 9.1595 28.8194C9.087 28.7454 9.05075 28.6505 9.05075 28.5347C9.05075 28.419 9.09425 28.3171 9.18125 28.2292L10.7617 26.6111C10.9357 26.4306 11.0759 26.2477 11.1822 26.0625C11.2885 25.8727 11.3417 25.6968 11.3417 25.5347C11.3417 25.3912 11.3055 25.2616 11.233 25.1458C11.1605 25.0301 11.0662 24.9375 10.9502 24.8681C10.8342 24.7986 10.7085 24.7639 10.5732 24.7639C10.4331 24.7639 10.2905 24.8102 10.1455 24.9028C10.0005 24.9907 9.8724 25.1088 9.76123 25.2569C9.70324 25.331 9.64524 25.3773 9.58724 25.3958C9.52924 25.4144 9.47607 25.4236 9.42774 25.4236C9.32141 25.4236 9.22233 25.3866 9.1305 25.3125C9.0435 25.2338 9 25.1435 9 25.0417C9 24.963 9.02658 24.8866 9.07975 24.8125C9.13775 24.7384 9.20783 24.662 9.28999 24.5833C9.47366 24.4074 9.68632 24.2662 9.92798 24.1597C10.1696 24.0532 10.4016 24 10.624 24C10.9526 24 11.2354 24.0648 11.4722 24.1944C11.709 24.3241 11.8927 24.5023 12.0232 24.7292C12.1537 24.956 12.2189 25.213 12.2189 25.5C12.2189 25.6944 12.1803 25.8935 12.1029 26.0972C12.0304 26.2963 11.9289 26.4907 11.7984 26.6806C11.6679 26.8704 11.5181 27.0532 11.349 27.2292L10.3702 28.2292L10.2905 28.1667H11.9217Z" fill="white"/>
<path d="M15.2576 28.9306C15.1368 28.9306 15.0353 28.8912 14.9531 28.8125C14.8709 28.7292 14.8298 28.6273 14.8298 28.5069V25.2431L14.9821 25.2778L13.5829 26.9375L13.5466 26.8472H16.0043C16.1203 26.8472 16.217 26.8843 16.2943 26.9583C16.3716 27.0324 16.4103 27.125 16.4103 27.2361C16.4103 27.3426 16.3716 27.4329 16.2943 27.5069C16.217 27.5764 16.1203 27.6111 16.0043 27.6111H12.9449C12.8434 27.6111 12.7443 27.5718 12.6476 27.4931C12.5558 27.4144 12.5099 27.3171 12.5099 27.2014C12.5099 27.0995 12.5461 27.0069 12.6186 26.9236L14.9096 24.2361C14.9483 24.1852 14.999 24.1458 15.0618 24.1181C15.1247 24.0856 15.1948 24.0694 15.2721 24.0694C15.3977 24.0694 15.4992 24.1111 15.5766 24.1944C15.6587 24.2731 15.6998 24.3727 15.6998 24.4931V28.5069C15.6998 28.6273 15.6563 28.7292 15.5693 28.8125C15.4872 28.8912 15.3832 28.9306 15.2576 28.9306Z" fill="white"/>
<path d="M17.7081 26.7083C17.4761 26.7083 17.2707 26.6481 17.0919 26.5278C16.913 26.4074 16.7729 26.2454 16.6714 26.0417C16.5699 25.838 16.5191 25.6111 16.5191 25.3611C16.5191 25.1065 16.5699 24.8773 16.6714 24.6736C16.7729 24.4699 16.913 24.3079 17.0919 24.1875C17.2707 24.0671 17.4761 24.0069 17.7081 24.0069C17.9449 24.0069 18.1503 24.0671 18.3243 24.1875C18.5032 24.3079 18.6409 24.4699 18.7376 24.6736C18.8391 24.8773 18.8898 25.1065 18.8898 25.3611C18.8898 25.6111 18.8366 25.838 18.7303 26.0417C18.624 26.2454 18.4814 26.4074 18.3026 26.5278C18.1286 26.6481 17.9304 26.7083 17.7081 26.7083ZM17.7081 26.0903C17.8531 26.0903 17.9643 26.0208 18.0416 25.8819C18.1237 25.7431 18.1648 25.5694 18.1648 25.3611C18.1648 25.1528 18.1262 24.9792 18.0488 24.8403C17.9715 24.7014 17.8579 24.6319 17.7081 24.6319C17.5631 24.6319 17.4495 24.7014 17.3673 24.8403C17.2852 24.9792 17.2441 25.1528 17.2441 25.3611C17.2441 25.5694 17.2828 25.7431 17.3601 25.8819C17.4423 26.0208 17.5583 26.0903 17.7081 26.0903ZM20.8183 29C20.5959 29 20.3954 28.9398 20.2165 28.8194C20.0377 28.6991 19.8951 28.537 19.7888 28.3333C19.6825 28.1296 19.6293 27.9028 19.6293 27.6528C19.6293 27.3981 19.68 27.169 19.7815 26.9653C19.883 26.7616 20.0232 26.5995 20.202 26.4792C20.3809 26.3588 20.5863 26.2986 20.8183 26.2986C21.0551 26.2986 21.2605 26.3588 21.4345 26.4792C21.6133 26.5995 21.7511 26.7616 21.8478 26.9653C21.9493 27.169 22 27.3981 22 27.6528C22 27.9028 21.9468 28.1296 21.8405 28.3333C21.7342 28.537 21.5916 28.6991 21.4128 28.8194C21.2388 28.9398 21.0406 29 20.8183 29ZM20.8183 28.3819C20.9633 28.3819 21.0744 28.3125 21.1518 28.1736C21.2339 28.0347 21.275 27.8611 21.275 27.6528C21.275 27.4444 21.2363 27.2708 21.159 27.1319C21.0817 26.9931 20.9681 26.9236 20.8183 26.9236C20.6733 26.9236 20.5597 26.9931 20.4775 27.1319C20.3954 27.2708 20.3543 27.4444 20.3543 27.6528C20.3543 27.8611 20.393 28.0347 20.4703 28.1736C20.5524 28.3125 20.6684 28.3819 20.8183 28.3819ZM17.7951 28.9444C17.7178 28.9444 17.6356 28.9144 17.5486 28.8542C17.4616 28.7894 17.4181 28.706 17.4181 28.6042C17.4181 28.544 17.4423 28.4745 17.4906 28.3958L20.376 24.2222C20.463 24.1111 20.5621 24.0556 20.6733 24.0556C20.7554 24.0556 20.8376 24.0856 20.9198 24.1458C21.0068 24.206 21.0503 24.2894 21.0503 24.3958C21.0503 24.456 21.0261 24.5255 20.9778 24.6042L18.0923 28.7778C18.0053 28.8889 17.9063 28.9444 17.7951 28.9444Z" fill="white"/>
<path d="M6 26.4C6 26.1791 6.17909 26 6.4 26H8.6C8.82091 26 9 26.1791 9 26.4C9 26.6209 8.82091 26.8 8.6 26.8H6.4C6.17909 26.8 6 26.6209 6 26.4Z" fill="white"/>
</svg>

<svg width="50" height="50" fill="none" xmlns="http://www.w3.org/2000/svg"><path d="M11.5 40.5c-1.97-.788-7.332 1.269-8.45 1.968a.093.093 0 00-.042.093l.483 3.87a.1.1 0 00.078.084l4.419.982a.1.1 0 00.024.003l37.928-.998a.1.1 0 00.087-.056l.962-1.925a.1.1 0 00.011-.045v-5.938a.1.1 0 00-.026-.067c-4-4.473-9.982-4.965-13.974-1.971-4 3-4.36-3-8-3-2 0-2.5 5-4 4.5s-2-1-3.5 1.5-3.5 2-6 1z" fill="#78768B"/><path d="M17.344 20.2c.192 0 .352.064.48.192a.651.651 0 01.192.48c0 .184-.064.34-.192.468a.675.675 0 01-.48.18h-4.08c-.208 0-.372-.064-.492-.192a.69.69 0 01-.18-.492c0-.2.072-.376.216-.528l2.616-2.796c.288-.312.52-.628.696-.948.176-.328.264-.632.264-.912 0-.248-.06-.472-.18-.672-.12-.2-.276-.36-.468-.48s-.4-.18-.624-.18c-.232 0-.468.08-.708.24-.24.152-.452.356-.636.612-.096.128-.192.208-.288.24a.84.84 0 01-.264.048.75.75 0 01-.492-.192.627.627 0 01-.216-.468.69.69 0 01.132-.396 3.737 3.737 0 011.404-1.128c.4-.184.784-.276 1.152-.276.544 0 1.012.112 1.404.336.392.224.696.532.912.924.216.392.324.836.324 1.332 0 .336-.064.68-.192 1.032-.12.344-.288.68-.504 1.008a7.44 7.44 0 01-.744.948l-1.62 1.728-.132-.108h2.7zm5.522 1.32a.685.685 0 01-.504-.204.74.74 0 01-.204-.528v-5.64l.252.06-2.316 2.868-.06-.156h4.068c.192 0 .352.064.48.192a.651.651 0 01.192.48c0 .184-.064.34-.192.468a.675.675 0 01-.48.18h-5.064c-.168 0-.332-.068-.492-.204a.65.65 0 01-.228-.504c0-.176.06-.336.18-.48l3.792-4.644a.633.633 0 01.252-.204.722.722 0 01.348-.084c.208 0 .376.072.504.216a.7.7 0 01.204.516v6.936a.718.718 0 01-.732.732zm-12.03-1.32c.192 0 .352.064.48.192a.651.651 0 01.192.48c0 .184-.064.34-.192.468a.675.675 0 01-.48.18h-4.08c-.208 0-.372-.064-.492-.192a.69.69 0 01-.18-.492c0-.2.072-.376.216-.528l2.616-2.796c.288-.312.52-.628.696-.948.176-.328.264-.632.264-.912 0-.248-.06-.472-.18-.672-.12-.2-.276-.36-.468-.48s-.4-.18-.624-.18c-.232 0-.468.08-.708.24-.24.152-.452.356-.636.612-.096.128-.192.208-.288.24a.84.84 0 01-.264.048.75.75 0 01-.492-.192A.627.627 0 016 14.8a.69.69 0 01.132-.396 3.737 3.737 0 011.404-1.128c.4-.184.784-.276 1.152-.276.544 0 1.012.112 1.404.336.392.224.696.532.912.924.216.392.324.836.324 1.332 0 .336-.064.68-.192 1.032-.12.344-.288.68-.504 1.008a7.44 7.44 0 01-.744.948l-1.62 1.728-.132-.108h2.7z" fill="#fff"/><path fill-rule="evenodd" clip-rule="evenodd" d="M45 3.7H5A1.3 1.3 0 003.7 5v40A1.3 1.3 0 005 46.3h40a1.3 1.3 0 001.3-1.3V5A1.3 1.3 0 0045 3.7zM5 2a3 3 0 00-3 3v40a3 3 0 003 3h40a3 3 0 003-3V5a3 3 0 00-3-3H5z" fill="#fff"/><path fill-rule="evenodd" clip-rule="evenodd" d="M21.931 38.694c-.353.195-.77.255-1.2.112a20.15 20.15 0 01-.466-.162c-.174-.062-.31-.111-.461-.153-.219-.06-.303-.053-.348-.041-.042.01-.157.05-.37.275-.219.23-.494.607-.857 1.212-.869 1.448-1.976 2.141-3.301 2.224-1.215.076-2.507-.377-3.744-.872-.293-.117-.834-.158-1.614-.064-.749.09-1.606.29-2.454.54a25.02 25.02 0 00-2.325.816c-.684.28-1.146.51-1.32.626a.85.85 0 01-.942-1.414c.326-.218.927-.503 1.618-.786a26.669 26.669 0 012.487-.872c.901-.266 1.857-.492 2.733-.598.845-.102 1.742-.109 2.449.174 1.263.505 2.221.802 3.006.753.675-.042 1.318-.349 1.95-1.401.386-.645.736-1.144 1.08-1.507.35-.37.734-.641 1.192-.756.455-.113.87-.043 1.215.053.198.055.44.141.67.222l.236.083c.033-.033.074-.082.123-.15.22-.303.437-.76.715-1.347l.041-.087c.275-.58.608-1.272 1.022-1.816.411-.539 1.037-1.108 1.934-1.108 1.174 0 2.067.494 2.773 1.092.477.405.927.916 1.31 1.352.145.165.28.32.405.453.513.552.89.838 1.265.919.321.069.844.024 1.737-.646 4.383-3.287 10.877-2.687 15.145 2.115a.85.85 0 11-1.27 1.13c-3.732-4.198-9.238-4.598-12.855-1.885-1.107.83-2.13 1.16-3.114.948-.932-.2-1.622-.852-2.154-1.425a27.815 27.815 0 01-.53-.592c-.347-.395-.66-.751-1.039-1.072-.51-.433-1.027-.689-1.673-.689-.103 0-.29.056-.582.439-.288.378-.55.905-.837 1.512l-.068.143c-.248.526-.53 1.124-.848 1.563-.177.244-.415.512-.734.688z" fill="#fff"/><path d="M11.922 28.167c.116 0 .212.037.29.11a.369.369 0 01.116.279.361.361 0 01-.116.27.418.418 0 01-.29.105H9.457a.397.397 0 01-.298-.112.39.39 0 01-.108-.284c0-.116.043-.218.13-.306l1.58-1.618a2.82 2.82 0 00.421-.549c.107-.19.16-.365.16-.527a.718.718 0 00-.109-.39.836.836 0 00-.283-.277.72.72 0 00-.377-.104.793.793 0 00-.428.139 1.366 1.366 0 00-.384.354.383.383 0 01-.333.167.464.464 0 01-.298-.111.357.357 0 01-.13-.271c0-.079.027-.155.08-.23a2.191 2.191 0 01.848-.653c.242-.106.474-.159.696-.159.329 0 .611.065.848.194.237.13.42.308.551.535.13.227.196.484.196.771 0 .194-.039.393-.116.597-.073.2-.174.394-.305.584-.13.19-.28.372-.449.548l-.979 1-.08-.062h1.632zm3.336.763a.423.423 0 01-.305-.117.419.419 0 01-.123-.306v-3.264l.152.035-1.4 1.66-.035-.09h2.457c.116 0 .213.036.29.11a.369.369 0 01.116.278.36.36 0 01-.116.27.418.418 0 01-.29.105h-3.06c-.1 0-.2-.04-.296-.118a.37.37 0 01-.138-.292c0-.102.036-.194.109-.277l2.29-2.688a.38.38 0 01.153-.118.451.451 0 01.21-.049c.126 0 .227.042.305.125a.396.396 0 01.123.3v4.013c0 .12-.044.222-.13.305a.432.432 0 01-.312.119zm2.45-2.222a1.08 1.08 0 01-.616-.18 1.24 1.24 0 01-.42-.486 1.505 1.505 0 01-.153-.68c0-.255.05-.485.152-.688a1.24 1.24 0 01.42-.486c.18-.12.385-.181.617-.181.237 0 .442.06.616.18.18.12.317.283.414.487.101.203.152.433.152.687 0 .25-.053.477-.16.68a1.297 1.297 0 01-.427.487 1.02 1.02 0 01-.595.18zm0-.618c.145 0 .256-.07.334-.208a1.01 1.01 0 00.123-.52c0-.21-.039-.383-.116-.522a.37.37 0 00-.34-.208c-.146 0-.26.07-.342.208a1.01 1.01 0 00-.123.521c0 .208.039.382.116.52a.385.385 0 00.348.21zm3.11 2.91c-.222 0-.423-.06-.602-.18a1.296 1.296 0 01-.427-.487 1.448 1.448 0 01-.16-.68c0-.255.051-.484.152-.688a1.24 1.24 0 01.421-.486c.179-.12.384-.18.616-.18.237 0 .442.06.616.18.18.12.317.283.414.486.101.204.152.433.152.688 0 .25-.053.477-.16.68a1.296 1.296 0 01-.427.486 1.02 1.02 0 01-.595.181zm0-.618c.145 0 .256-.07.334-.208a1.01 1.01 0 00.123-.521 1.06 1.06 0 00-.116-.521.37.37 0 00-.34-.208c-.146 0-.26.07-.341.208a1.01 1.01 0 00-.124.52c0 .21.039.383.116.522a.385.385 0 00.348.208zm-3.023.562a.439.439 0 01-.246-.09.299.299 0 01-.13-.25c0-.06.023-.13.072-.208l2.885-4.174c.087-.11.186-.166.297-.166.082 0 .165.03.247.09.087.06.13.143.13.25 0 .06-.024.13-.072.208l-2.886 4.174c-.087.11-.186.166-.297.166z" fill="#fff"/><path d="M6 26.4c0-.22.18-.4.4-.4h2.2a.4.4 0 010 .8H6.4a.4.4 0 01-.4-.4z" fill="#fff"/></svg>
